app/dist/common/images/procore.svg

<svg height="18" viewBox="0 0 18 18" width="18" xmlns="http://www.w3.org/2000/svg"><path d="m0 0h18v18h-18z" fill="#f0f3fa"/><path d="m4 5.79c0-1 .75-1.79 1.67-1.79h6.66c.92 0 1.67.8 1.67 1.79v1.71h-2.3l-1.03-1.5h-3.34l-1.83 3 1.83 3h3.34l1.03-1.5h2.3v1.71c0 .99-.75 1.79-1.67 1.79h-6.66c-.92 0-1.67-.8-1.67-1.79v-6.41z" fill="#010506"/><path d="m10 7.4h-2l-1 1.6 1 1.6h2l1-1.6z" fill="#f25522"/></svg>

<!-- by TradingView --><svg xmlns="http://www.w3.org/2000/svg" width="18" height="18" viewBox="0 0 18 18"><path fill="#F0F3FA" d="M0 0h18v18H0z"/><path d="M4 5.79C4 4.79 4.75 4 5.67 4h6.66c.92 0 1.67.8 1.67 1.79V7.5h-2.3L10.67 6H7.33L5.5 9l1.83 3h3.34l1.03-1.5H14v1.71c0 .99-.75 1.79-1.67 1.79H5.67C4.75 14 4 13.2 4 12.21V5.8Z" fill="#010506"/><path d="M10 7.4H8L7 9l1 1.6h2L11 9l-1-1.6Z" fill="#F25522"/></svg>
